X:24
T:I'll Gang Nea Mear to Yon Town
S:Petrie's Third Collection of Strathspey Reels and Country Dances &c.
Z:Steve Wyrick , 7/30/05
N:Petrie's Third Collection, page 10
L:1/8
M:C
R:Reel
K:F
A|Ff-fc {B}A2 Fc|AcFc AGGg|(a/g/f/e/) fc {c}A2 Fc|AcGB AF F::c|
AFcF dFcF|AFcF AGGB|AFcF dFcF|AcGB AFF:|]
